X: 10
T:Mickey Chewing Bubblegum
M:2/4
L:1/8
C:Courtesy of A. Doyle
R:Polka
K:D
a2af | ec a2 | ce a>f | ec ( (3B/2c/2B/2)A |
| a2 af | ec a2 | ce B>c | (( 3 B/2c/2B/2)A A2 :|
|:ce ec | df fd | ce ec | dc ((3B/2c/2B/2)A |
| ce ec | df fe | ce B>c | ((3B/2c/2B/2)A A2 :|
